X:70
T: One of Coleman's Favorites
S: "Treoir"
Z: B.Black
M: 4/4
L: 1/8
R: reel
K: G
d>c|: B2 BA GB D2|GBAD G2 dc|BcdB G2 FG|AF F2 DF F2|
B2 BA GB D2|GBAD G2 Bc|dBcA BGAF| DEFG ABcA||
B2 dc dc d2|(3Bcd ef gfed|(3Bcd dc dc d2|(3Bcd ef g3 z|
B2 dc dc d2|(3Bcd ef gfed|(3Bcd dc dgeg|f2 af g4||

